svg/opensearch.svg

<?xml version="1.0" encoding="UTF-8"?>
<svg xmlns="http://www.w3.org/2000/svg" xmlns:xlink="http://www.w3.org/1999/xlink" width="32" height="32" viewBox="0 0 32 32">
<path fill-rule="nonzero" fill="rgb(0%, 36.862745%, 72.156863%)" fill-opacity="1" d="M 30.25 11.617188 C 29.648438 11.617188 29.164062 12.101562 29.164062 12.699219 C 29.164062 21.621094 21.933594 28.851562 13.011719 28.851562 C 12.414062 28.851562 11.925781 29.339844 11.925781 29.9375 C 11.925781 30.535156 12.414062 31.023438 13.011719 31.023438 C 23.128906 31.023438 31.332031 22.820312 31.332031 12.699219 C 31.332031 12.101562 30.847656 11.617188 30.25 11.617188 "/>
<path fill-rule="nonzero" fill="rgb(0%, 23.137255%, 36.078431%)" fill-opacity="1" d="M 23.707031 18.5625 C 24.746094 16.863281 25.757812 14.59375 25.558594 11.417969 C 25.148438 4.84375 19.191406 -0.144531 13.566406 0.394531 C 11.363281 0.605469 9.101562 2.402344 9.304688 5.617188 C 9.390625 7.011719 10.074219 7.839844 11.1875 8.472656 C 12.242188 9.074219 13.601562 9.457031 15.144531 9.890625 C 17.003906 10.414062 19.160156 11.003906 20.820312 12.222656 C 22.808594 13.6875 24.167969 15.386719 23.707031 18.5625 "/>
<path fill-rule="nonzero" fill="rgb(0%, 36.862745%, 72.156863%)" fill-opacity="1" d="M 2.542969 7.0625 C 1.5 8.765625 0.492188 11.03125 0.691406 14.207031 C 1.101562 20.78125 7.058594 25.773438 12.683594 25.230469 C 14.886719 25.019531 17.144531 23.226562 16.945312 20.007812 C 16.859375 18.613281 16.175781 17.789062 15.0625 17.152344 C 14.003906 16.550781 12.648438 16.167969 11.105469 15.734375 C 9.246094 15.210938 7.085938 14.625 5.425781 13.402344 C 3.441406 11.9375 2.078125 10.238281 2.542969 7.0625 "/>
</svg>

<svg role="img" viewBox="0 0 32 32" height="32" width="32" xmlns="http://www.w3.org/2000/svg"><path d="M30.25 11.617c-.602 0-1.086.485-1.086 1.082 0 8.922-7.23 16.153-16.152 16.153-.598 0-1.086.488-1.086 1.085 0 .598.488 1.086 1.086 1.086 10.117 0 18.32-8.203 18.32-18.324 0-.597-.484-1.082-1.082-1.082" fill="rgb(0%, 36.862745%, 72.156863%)"/><path d="M23.707 18.563c1.04-1.7 2.05-3.97 1.852-7.145C25.149 4.844 19.19-.145 13.566.395c-2.203.21-4.464 2.007-4.261 5.222.086 1.395.77 2.223 1.883 2.856 1.054.601 2.414.984 3.957 1.418 1.859.523 4.015 1.113 5.675 2.332 1.989 1.464 3.348 3.164 2.887 6.34" fill="rgb(0%, 23.137255%, 36.078431%)"/><path d="M2.543 7.063C1.5 8.766.493 11.03.691 14.207c.41 6.574 6.368 11.566 11.993 11.023 2.203-.21 4.46-2.003 4.261-5.222-.086-1.395-.77-2.219-1.883-2.856-1.058-.601-2.414-.984-3.957-1.418-1.859-.523-4.02-1.109-5.68-2.332-1.984-1.464-3.347-3.164-2.882-6.34" fill="rgb(0%, 36.862745%, 72.156863%)"/></svg>
